X: 1884
T: Tâhirbûselik Sazsemâîsi
C: Kemânî Rıza Efendi
O: Turkey
F: http://compmusic.upf.edu/node/140
N: tahirbuselik--sazsemaisi--aksaksemai----kemani_riza_efendi
N: makam= tahirbuselik
N: form= sazsemaisi
N: usul= aksaksemai = 10/8
M: 10/8
L: 1/16
K: C _1/4B ^f  
Q: 1/4=112
%%MIDI tuningsystem comma53
a4 a2a_2/4b c'ba2 g^3/4fag fed2  | \
w:  1. HANE  | 
^3/4fgf2 e2fg f2ga g2a4z2  | 
w:   | 
c'4 c'_2/4bb2 a2a2 abag ^3/4f^3/4ef2  | \
w:   | 
^3/4fgfg fea2 gfag fed4e2  | 
w:   | 
dcde dc_2/4B3cd2 e2^3/4f2 g2a2  | \
w:   | 
^3/4f4 d2e=f edfe d^cd4z2  | 
w:   | 
g2a2 a2a_2/4b c'ba2 g^3/4fag fed2  | \
w:  TESLİM  | 
g4 ^3/4fea2 gfg2 =fefe dec2  | 
w:   | 
d2e2 =f2f/e/f/g/ fee2 {f}eded c=BA2  | \
w:   | 
=B2c2 d2cB A2cB A^GA4z2  | 
w:   | 
f4 f^ef4g2 a2f4z2  | ^3/4fgf2 e2fg f2ga g2a4z2  | \
w:  2. HANE  |   | 
c'4 c'bb3aa2 b2ag f^ef2  | 
w:   | 
fg^3/4fg fea2 gfag fed4e2  | d3/2c/de dcB2 c2d2 e2f2 g2a2  | 
w:   |   | 
f4 d2e=f edfe d^cd4z2  | g2a2 a2a_2/4b c'ba2 g^3/4fag fed2  | 
w:   |  TESLİM  | 
g4 ^3/4fea2 gfg2 =fefe dec2  | d2e2 =f2f/e/f/g/ fee2 {f}eded c=BA2  | 
w:   |   | 
=B2c2 d2cB A2cB A^GA4z2  | G4 A2_2/4Bc B2cd c2de d2e2  | 
w:   |  3. HANE  | 
^3/4f2g2 a2g2 fef2 g2a4z2  | a2_2/4b2 c'2b3ag2 ^3/4f2g4d'2  | \
w:   |   | 
c'3_2/4b a2b3ab2 c'2a4z2  | 
w:   | 
d'4 c'2d'4{d'}c'2 d'2e'=f' e'2d'2  | \
w:   | 
c'4 _2/4b2{d'}c'4b2 c'2d'e' d'2c'2  | \
w:   | 
_2/4b4 a2{c'}=b4a2 _2/4b2c'd' c'2b2  | 
w:   | 
a4 g2^3/4f4c'2 _2/4baa4z2  | g2a2 a2a_2/4b c'ba2 g^3/4fag fed2  | 
w:   |  TESLİM  | 
g4 ^3/4fea2 gfg2 =fefe dec2  | d2e2 =f2f/e/f/g/ fee2 {f}eded c=BA2  | 
w:   |   | 
=B2c2 d2cB A2cB A^GA4z2  | z24  | .G4.c4.e4.=f2.^f2g6z2  | \
w:   |  |  4. HANE  | 
(3g2^3/4f2g2(3a2g2f2(3e2d2e2(3=f2e2d2(3c2_2/4B2d2(3c2B2A2  | 
w:   | 
.G4.c4.e4.=f2.^f2g6z2  | g4a2b2c'2g2a2b2c'4z4  | \
w:   |   | 
c'3=ba2^g2a2b2c'2a2b8  | 
w:   | 
e3=fg2e2f3e^d2f2e4z4  | d3e=f4e3dc2e2d3c=B2d2  | 
w:   |   | 
c3=BA2c2B3A^G2B2A4z4  | c'3=ba2^g2a2b2c'2a2b8  | \
w:   |   | 
e3=fg2e2f3e^d2f2e4z4  | 
w:   | 
d3e=f4e3dc2e2d3c=B2d2  | c3=BA2c2B3A^G2B2A4z4  | 
w:   |   | 
z20  | g2a2 a2a_2/4b c'ba2 g^3/4fag fed2  | \
w:  |  TESLİM  | 
g4 ^3/4fea2 gfg2 =fefe dec2  | 
w:   | 
d2e2 =f2f/e/f/g/ fee2 {f}eded c=BA2  | \
w:   | 
=B2c2 d2cB A2cB A^GA4z2  | 
w:   | 
|


